X: 142
T:Lennon`s No.4
M:C
L:1/8
C: Charlie Lennon
K:D
F2 AF dFAF | DFAF GBAG |F2 AF dFAF | (3GAG FG EFGE | F2 AF dFAF |
DFAF GBAG|1 FAdf ecAB | (3cBA eA cAGA:|2 FAdf e^def| ((3gag) ec ABcA||
|: defd Adfd | eA {d}BA ge{a}fe | d2 fd adfd | (3Bcd ef gece | 
d2 fd Adfd | (3BdB GB g2 fg | (3agf ge {a}fded |1 cded cAce :|2 cded cAGE ||
